X: 2719
T: Banks Of Lough Gowna, The
R: jig
M: 6/8
K: Bminor
|:~B3 BAF|FEF DFA|~B3 BAB|d2e fed|
~B3 BAF|FEF DFA|def geg|fBA B2A:|
|:def a2b|a2b afe|~d3 def|geg fBA|
def a2b|a2b afe|def geg|fBA B2A:|

